packages/foundations/assets/icons/functional/images/transportation/ship_28_inverted.svg

<svg width="28" height="28" viewBox="0 0 28 28" fill="none" xmlns="http://www.w3.org/2000/svg">
<g clip-path="url(#clip0_2214_7260)">
<path fill-rule="evenodd" clip-rule="evenodd" d="M23.1084 20.9684C23.4923 21.3676 23.7535 21.624 23.8918 21.7375C24.3824 22.1399 24.9603 22.4438 25.373 22.4438C25.7857 22.4438 26.1187 22.7768 26.1187 23.1875C26.1187 23.5667 25.8123 23.9313 25.373 23.9313C24.4614 23.9313 23.5141 23.4608 22.5312 22.5198C21.5234 23.4608 20.5762 23.9313 19.6894 23.9313C18.8027 23.9313 17.8541 23.4605 16.8437 22.519C15.8429 23.4618 14.8937 23.9326 13.9964 23.9313C13.099 23.93 12.1523 23.4595 11.1562 22.5198C10.1626 23.4609 9.21484 23.9314 8.313 23.9313C7.41116 23.9311 6.46307 23.4604 5.46873 22.519C4.46701 23.4605 3.51909 23.9313 2.62498 23.9313C2.21421 23.9313 1.88123 23.5983 1.88123 23.1875C1.88123 22.8084 2.18993 22.4438 2.62498 22.4438C3.0278 22.4438 3.56348 22.1855 4.10897 21.7377C4.24719 21.6242 4.50791 21.368 4.89113 20.969C5.18879 20.602 5.74867 20.602 6.04632 20.969C6.42955 21.368 6.69027 21.6242 6.82848 21.7377C7.31942 22.1407 7.87498 22.4438 8.31248 22.4438C8.74998 22.4438 9.30458 22.1406 9.79576 21.7376C9.9341 21.624 10.1952 21.3677 10.579 20.9685C10.8766 20.6022 11.4357 20.6022 11.7334 20.9684C12.1173 21.3677 12.3784 21.624 12.5168 21.7375C13.0075 22.1401 13.5592 22.4447 13.9985 22.4438C14.4379 22.4428 14.9382 22.1846 15.4831 21.7375C15.6215 21.624 15.8826 21.3676 16.2666 20.9684C16.5429 20.6285 17.0444 20.6041 17.353 20.8953C17.7825 21.3432 18.0664 21.6239 18.2049 21.7374C18.6932 22.1379 19.2558 22.4446 19.6894 22.4438C20.1231 22.4429 20.6256 22.1847 21.1706 21.7375C21.309 21.624 21.5701 21.3676 21.9541 20.9684C22.2517 20.6022 22.8107 20.6022 23.1084 20.9684ZM17.5 4.06873C17.8069 4.06873 18.0785 4.25663 18.1902 4.53537L18.7381 6.69373L7.69442 6.69952C7.3277 6.74541 7.04397 7.05831 7.04397 7.43748C7.04397 7.81664 7.3277 8.12954 7.69442 8.17543L19.1108 8.18123L19.8354 11.0687H24.5C24.9215 11.0687 25.2613 11.4186 25.2433 11.8397C25.1227 14.6562 23.8145 16.8244 23.1978 17.7048C22.581 18.5853 22.4966 18.6637 22.1437 19.0581C21.4274 19.8585 20.6378 20.4313 19.6397 20.4313C18.7362 20.4313 17.7937 19.8421 16.8122 18.6637C15.8434 19.8438 14.8964 20.433 13.9711 20.4313C13.0457 20.4295 12.101 19.8403 11.137 18.6637C10.1983 19.8421 9.25697 20.4313 8.313 20.4313C7.36903 20.4313 6.4189 19.8424 5.4626 18.6646C4.48112 19.8608 3.53524 20.4589 2.62498 20.4589C2.24581 20.4589 1.88123 20.1449 1.88123 19.7151V11.2437L17.1558 11.2379C17.5225 11.192 17.8062 10.8791 17.8062 10.5C17.8062 10.1208 17.5225 9.80791 17.1558 9.76202L1.88123 9.75623V4.81248C1.88123 4.40171 2.21421 4.06873 2.62498 4.06873H17.5ZM14.2187 13.5625C13.6147 13.5625 13.125 14.0522 13.125 14.6562C13.125 15.2603 13.6147 15.75 14.2187 15.75C14.8228 15.75 15.3125 15.2603 15.3125 14.6562C15.3125 14.0522 14.8228 13.5625 14.2187 13.5625ZM18.5937 13.5625C17.9897 13.5625 17.5 14.0522 17.5 14.6562C17.5 15.2603 17.9897 15.75 18.5937 15.75C19.1978 15.75 19.6875 15.2603 19.6875 14.6562C19.6875 14.0522 19.1978 13.5625 18.5937 13.5625ZM9.84373 13.5625C9.23966 13.5625 8.74998 14.0522 8.74998 14.6562C8.74998 15.2603 9.23966 15.75 9.84373 15.75C10.4478 15.75 10.9375 15.2603 10.9375 14.6562C10.9375 14.0522 10.4478 13.5625 9.84373 13.5625ZM5.46873 13.5625C4.86466 13.5625 4.37498 14.0522 4.37498 14.6562C4.37498 15.2603 4.86466 15.75 5.46873 15.75C6.07279 15.75 6.56248 15.2603 6.56248 14.6562C6.56248 14.0522 6.07279 13.5625 5.46873 13.5625Z" fill="#1A1C1F"/>
</g>
<defs>
<clipPath id="clip0_2214_7260">
<rect width="28" height="28" fill="white"/>
</clipPath>
</defs>
</svg>

<svg xmlns="http://www.w3.org/2000/svg" width="28" height="28" fill="none"><g clip-path="url(#a)"><path fill="#1A1C1F" fill-rule="evenodd" d="M23.108 20.968q.576.6.784.77c.49.402 1.068.706 1.481.706a.744.744 0 1 1 0 1.487q-1.368 0-2.842-1.411-1.512 1.41-2.842 1.411-1.33 0-2.845-1.412-1.501 1.415-2.848 1.412-1.346-.002-2.84-1.411-1.49 1.41-2.843 1.411-1.353 0-2.844-1.412-1.503 1.413-2.844 1.412a.744.744 0 0 1 0-1.487c.403 0 .938-.258 1.484-.706q.207-.17.782-.769a.744.744 0 0 1 1.155 0q.575.598.782.769c.491.403 1.047.706 1.484.706s.993-.303 1.484-.706q.208-.17.783-.77a.744.744 0 0 1 1.154 0q.576.6.784.77c.49.402 1.042.707 1.482.706s.94-.26 1.484-.706q.208-.17.784-.77a.744.744 0 0 1 1.086-.073q.644.672.852.842c.488.4 1.05.708 1.484.707s.937-.26 1.482-.706q.208-.17.783-.77a.744.744 0 0 1 1.154 0M17.5 4.068c.307 0 .578.189.69.467l.548 2.159L7.694 6.7a.744.744 0 0 0 0 1.475l11.417.006.724 2.888H24.5c.422 0 .761.35.743.77-.12 2.817-1.428 4.985-2.045 5.866s-.701.959-1.054 1.353c-.717.8-1.506 1.373-2.504 1.373q-1.355 0-2.828-1.767-1.454 1.77-2.84 1.767-1.389-.002-2.835-1.767-1.408 1.767-2.824 1.767t-2.85-1.766q-1.473 1.794-2.838 1.794a.75.75 0 0 1-.744-.744v-8.471l15.275-.006a.744.744 0 0 0 0-1.476L1.88 9.756V4.812c0-.41.333-.743.744-.743zm-3.281 9.495a1.094 1.094 0 1 0 0 2.187 1.094 1.094 0 0 0 0-2.187m4.375 0a1.094 1.094 0 1 0 0 2.187 1.094 1.094 0 0 0 0-2.187m-8.75 0a1.094 1.094 0 1 0 0 2.187 1.094 1.094 0 0 0 0-2.187m-4.375 0a1.094 1.094 0 1 0 0 2.187 1.094 1.094 0 0 0 0-2.187" clip-rule="evenodd"/></g><defs><clipPath id="a"><path fill="#fff" d="M0 0h28v28H0z"/></clipPath></defs></svg>
